src/assets/Markdown.svg

<svg version="1.1" viewBox="0 0 50 50" xmlns="http://www.w3.org/2000/svg">
 <g transform="matrix(.24 0 0 .24 -4.8e-7 9.6)">
  <rect x="5" y="5" width="198" height="118" ry="10" fill="none" stroke="#f9f9f9" stroke-width="10"/>
  <path d="m30 98v-68h20l20 25 20-25h20v68h-20v-39l-20 25-20-25v39zm125 0-30-33h20v-35h20v35h20z" fill="#f9f9f9"/>
 </g>
</svg>

<?xml version="1.0" encoding="UTF-8" standalone="no"?>
<svg
   width="50"
   height="50"
   viewBox="0 0 50 50"
   version="1.1"
   id="svg1"
   sodipodi:docname="Markdown.svg"
   inkscape:version="1.3.2 (1:1.3.2+202311252150+091e20ef0f)"
   xmlns:inkscape="http://www.inkscape.org/namespaces/inkscape"
   xmlns:sodipodi="http://sodipodi.sourceforge.net/DTD/sodipodi-0.dtd"
   xmlns="http://www.w3.org/2000/svg"
   xmlns:svg="http://www.w3.org/2000/svg">
  <defs
     id="defs1" />
  <sodipodi:namedview
     id="namedview1"
     pagecolor="#505050"
     bordercolor="#ffffff"
     borderopacity="1"
     inkscape:showpageshadow="0"
     inkscape:pageopacity="0"
     inkscape:pagecheckerboard="1"
     inkscape:deskcolor="#505050"
     inkscape:zoom="1.6923077"
     inkscape:cx="50.227273"
     inkscape:cy="52.295455"
     inkscape:window-width="1920"
     inkscape:window-height="1043"
     inkscape:window-x="0"
     inkscape:window-y="0"
     inkscape:window-maximized="1"
     inkscape:current-layer="svg1" />
  <g
     id="g1"
     transform="matrix(0.24038462,0,0,0.24038462,-4.8e-7,9.6153843)">
    <rect
       width="198"
       height="118"
       x="5"
       y="5"
       ry="10"
       stroke="#000000"
       stroke-width="10"
       fill="none"
       id="rect1" />
    <path
       d="M 30,98 V 30 H 50 L 70,55 90,30 h 20 V 98 H 90 V 59 L 70,84 50,59 v 39 z m 125,0 -30,-33 h 20 V 30 h 20 v 35 h 20 z"
       id="path1" />
  </g>
</svg>
